X: 1
T: Mr & Mrs John Corbett
C: Nan Main
R: jig
Z: 2019 John Chambers <jc:trillian.mit.edu>
B: Originally Ours p.185
N: Tune for Miss Margaret Hill
M: 6/8
L: 1/8
K: G
e |\
"G"d2G GFG | "C"cGc efg | "G"d2G GFG | "(A7)"B3 "D7"A2e |\
"G"d2G GFG | "C"Gce gec | "Am"ecA "D7"dAF | "G"G3 G2 ||
A |\
"Em"B2e efe | "B7"B2f fgf | "Em"e2f ga^a | "B"b3 b2B |\
"Em"bag "B7"agf | "Em"gfe "B7"fe^d | "Em"e2B "B7"BAF | "Em"E3 e2 |]
